!!!!SEGMENT: Snf0238-Pange_lingua_gloriosi_III--Zwickau_1676_1788.krn
!!!id: Snf0238
!!!AGN: Motet
!!!voices: 3
!!!COM: Ludwig Senfl
!!!OTL: Pange, lingua, gloriosi III (Zwickau 1676-1788)
**kern	**text	**kern	**text	**kern	**text
*part3	*part3	*part2	*part2	*part1	*part1
*staff3	*staff3	*staff2	*staff2	*staff1	*staff1
*I"Bassus	*	*I"Tenor	*	*I"Superius	*
*I'B	*	*I'T	*	*I'S	*
*clefF4	*	*clefGv2	*	*clefG2	*
*	*	*	*	*	*
*k[]	*	*k[]	*	*k[]	*
*	*	*	*	*	*
*M2/1	*	*M2/1	*	*M2/1	*
*met(C|)	*	*met(C|)	*	*met(C|)	*
!!section: Prima pars: Pange, lingua, gloriosi
!!!OMD: Prima pars: Pange, lingua, gloriosi
!	!	!	!	!LO:TX:a:t=Altus not extant	!
0r	.	0r	.	0r	.
=1	=1	=1	=1	=1	=1
1E	Pan-	0r	.	0r	.
1F	-ge,	.	.	.	.
=2	=2	=2	=2	=2	=2
1E	lin-	1E	Pan-	0r	.
1D	-gua,	1F	-ge,	.	.
=3	=3	=3	=3	=3	=3
2r	.	1E	lin-	0r	.
1GG	glo-	.	.	.	.
.	.	1D	-gua,	.	.
2GG	-ri-	.	.	.	.
=4	=4	=4	=4	=4	=4
2.GG	-o-	2r	.	0r	.
.	.	1G	glo-	.	.
4AA	.	.	.	.	.
2BB	.	.	.	.	.
[2C	.	2G	-ri-	.	.
=5	=5	=5	=5	=5	=5
4C]	.	1.G	-o-	0r	.
4D	.	.	.	.	.
1E	.	.	.	.	.
2F	.	2A	.	.	.
=6	=6	=6	=6	=6	=6
2G	.	2B	.	0r	.
2E	.	1c	.	.	.
1D	.	.	.	.	.
.	.	2B	.	.	.
=7	=7	=7	=7	=7	=7
2C	.	1c	-si,	0e	Pan-
2AA	-si,	.	.	.	.
2.A	glo-	2r	.	.	.
.	.	2c	pan-	.	.
4G	-ri-	.	.	.	.
=8	=8	=8	=8	=8	=8
2.F	-o-	1A	.	0f	-ge,
4E	.	.	.	.	.
1D	.	1F	-ge,	.	.
=9	=9	=9	=9	=9	=9
1C	-si,	2G	lin-	0e	lin-
.	.	2E	.	.	.
2r	.	2.A	.	.	.
2AA	glo-	.	.	.	.
.	.	4G	.	.	.
=10	=10	=10	=10	=10	=10
2.D	-ri-	2.F	.	0d	-gua,
4C	.	4E	.	.	.
2.BB	-o-	1D	-gua,	.	.
4AA	.	.	.	.	.
=11	=11	=11	=11	=11	=11
1GG	-si,	2.d	glo-	1r	.
.	.	4c	.	.	.
2.G	glo-	2.B	.	[1g	glo-
4F	-ri-	4A	.	.	.
=12	=12	=12	=12	=12	=12
2.E	-o-	1G	.	1g]	.
4D	.	.	.	.	.
[1C	.	2G	-ri-	1g	-ri-
.	.	[2E	-o-	.	.
=13	=13	=13	=13	=13	=13
2C]	.	4E]	.	0g	-o-
.	.	4F	.	.	.
4BB	.	4G	.	.	.
4AA	.	4A	.	.	.
2GG	-si,	1B	.	.	.
2G	glo-	.	.	.	.
=14	=14	=14	=14	=14	=14
2F	.	2c	.	0a	.
2.D	-ri-	2d	.	.	.
.	.	2A	.	.	.
4E	.	.	.	.	.
4F	.	2d	.	.	.
4G	.	.	.	.	.
=15	=15	=15	=15	=15	=15
1.A	-o-	1c	-si	0cc	.
.	.	2r	.	.	.
2F	.	[2c	cor-	.	.
=16	=16	=16	=16	=16	=16
1F	-si,	4c]	.	0cc	-si
.	.	4B	.	.	.
.	.	4A	.	.	.
.	.	4G	.	.	.
2r	.	1A	.	.	.
2F	glo-	.	.	.	.
=17	=17	=17	=17	=17	=17
2E	.	2G	.	0r	.
2C	-ri-	2c	.	.	.
1E	-o-	2B	.	.	.
.	.	2G	.	.	.
=18	=18	=18	=18	=18	=18
1D	-si	1d	.	0r	.
2r	.	1d	-po-	.	.
2D	cor-	.	.	.	.
=19	=19	=19	=19	=19	=19
2.F	.	1c	-ris,	0cc	cor-
4G	.	.	.	.	.
1A	.	2r	.	.	.
.	.	2c	cor-	.	.
=20	=20	=20	=20	=20	=20
2.D	.	2B	.	0dd	.
.	.	1A	.	.	.
4C	.	.	.	.	.
1BB	.	.	.	.	.
.	.	2G	.	.	.
=21	=21	=21	=21	=21	=21
1AA	.	2.c	.	1cc	-po-
.	.	4B	.	.	.
2FF	.	4A	.	1cc	-ris
.	.	4G	.	.	.
[2F	.	[2A	.	.	.
=22	=22	=22	=22	=22	=22
2F]	.	2A]	.	0cc	my-
4E	.	4G	.	.	.
4D	.	4F	.	.	.
2C	.	[1G	.	.	.
2C	-po-	.	.	.	.
=23	=23	=23	=23	=23	=23
1GG	-ris	2G]	.	0b	.
.	.	2G	-po-	.	.
2r	.	1G	-ris	.	.
2G	my-	.	.	.	.
=24	=24	=24	=24	=24	=24
1A	-ste-	1r	.	0a	-ste-
1D	.	[1d	my-	.	.
=25	=25	=25	=25	=25	=25
1G	.	1d]	.	1b	-ri-
[1F	.	[1f	-ste-	[1cc	-um,
=26	=26	=26	=26	=26	=26
1F]	.	1f]	.	1cc]	.
1G	.	1d	-ri-	1b	.
=27	=27	=27	=27	=27	=27
0D	-ri-	1d	-um,	0a	.
.	.	2r	.	.	.
.	.	2d	san-	.	.
=28	=28	=28	=28	=28	=28
1E	-um,	1B	-gui-	0g	.
2r	.	1c	-nis-	.	.
2C	san-	.	.	.	.
=29	=29	=29	=29	=29	=29
2D	-gui-	2B	-que	0r	.
1F	-nis-	1A	pre-	.	.
2E	-que	2G	.	.	.
=30	=30	=30	=30	=30	=30
2D	pre-	2F	.	1r	.
2C	-ti-	2E	-ti-	.	.
1BB	-o-	1B	-o-	1g	san-
=31	=31	=31	=31	=31	=31
1AA	-si,	1c	-si,	1a	-gui-
2r	.	2r	.	[1cc	-nis-
[2A	san-	[2e	san-	.	.
=32	=32	=32	=32	=32	=32
2A]	.	2e]	.	1cc]	.
2F	-gui-	2f	-gui-	.	.
1G	-nis-	1d	-nis-	[1b	-que
=33	=33	=33	=33	=33	=33
1E	-que	1e	-que	1b]	.
2r	.	2r	.	[1a	pre-
[2F	pre-	[2c	pre-	.	.
=34	=34	=34	=34	=34	=34
2F]	.	2c]	.	1a]	.
2D	-ti-	2d	-ti-	.	.
1E	-o-	1B	-o-	1g	-ti-
=35	=35	=35	=35	=35	=35
0AA	-si,	1A	-si,	0a	-o-
.	.	2r	.	.	.
.	.	[2c	san-	.	.
=36	=36	=36	=36	=36	=36
2r	.	2c]	.	0a	-si,
1A	san-	2A	-gui-	.	.
.	.	2c	-nis-	.	.
2F	-gui-	2d	-que	.	.
=37	=37	=37	=37	=37	=37
1G	-nis-	2.B	pre-	0r	.
.	.	4c	.	.	.
2D	-que	4d	.	.	.
.	.	4c	.	.	.
[2E	pre-	4B	.	.	.
.	.	4A	.	.	.
=38	=38	=38	=38	=38	=38
2E]	.	2G	.	1r	.
2C	-ti-	2A	-ti-	.	.
1D	-o-	1F	-o-	1a	quem
=39	=39	=39	=39	=39	=39
1AA	-si,	1E	-si,	0cc	in
1AA	quem	1r	.	.	.
=40	=40	=40	=40	=40	=40
1C	in	1E	quem	0g	mun-
[1GG	mun-	1G	in	.	.
=41	=41	=41	=41	=41	=41
1GG]	.	1D	mun-	0g	-di
1GG	-di	1D	-di	.	.
=42	=42	=42	=42	=42	=42
1D	pre-	2r	.	1f	pre-
.	.	2F	pre-	.	.
2AA	.	2E	.	1a	-ti-
[2D	.	[2F	.	.	.
=43	=43	=43	=43	=43	=43
2D]	.	2F]	.	0a	-um
4C	.	4E	.	.	.
4BB	.	4D	.	.	.
1AA	-ti-	2E	.	.	.
.	.	2F	-ti-	.	.
=44	=44	=44	=44	=44	=44
[0GG	-um	1G	-um	0d	.
.	.	2r	.	.	.
.	.	[2B	fru-	.	.
=45	=45	=45	=45	=45	=45
1GG]	.	2B]	.	0r	.
.	.	2G	-ctus	.	.
2r	.	2.B	ven-	.	.
[2G	fru-	.	.	.	.
.	.	4c	.	.	.
=46	=46	=46	=46	=46	=46
2G]	.	1d	.	1r	.
2G	-ctus	.	.	.	.
1G	ven-	1B	.	[1g	fru-
=47	=47	=47	=47	=47	=47
0E	-tris	[0B	-tris	1g]	.
.	.	.	.	1g	-ctus
=48	=48	=48	=48	=48	=48
1r	.	0B]	.	0g	ven-
1G	ge-	.	.	.	.
=49	=49	=49	=49	=49	=49
1A	-ne-	1r	.	0e	-tris
1A	-ro-	2r	.	.	.
.	.	2c	ge-	.	.
=50	=50	=50	=50	=50	=50
0G	-si	2d	-ne-	1r	.
.	.	1B	-ro-	.	.
.	.	.	.	1g	ge-
.	.	4A	.	.	.
.	.	4G	.	.	.
=51	=51	=51	=51	=51	=51
1r	.	1d	.	0a	-ne-
1D	Rex	1A	-si	.	.
=52	=52	=52	=52	=52	=52
0F	ef-	1r	.	0a	-ro-
.	.	1A	Rex	.	.
=53	=53	=53	=53	=53	=53
1.C	-fu-	1c	ef-	0g	-si
.	.	1G	-fu-	.	.
2BB	.	.	.	.	.
=54	=54	=54	=54	=54	=54
2AA	-dit	1.A	.	0r	.
2D	gen-	.	.	.	.
2C	.	.	.	.	.
2BB	.	2G	.	.	.
=55	=55	=55	=55	=55	=55
2AA	.	2F	.	0r	.
2GG	.	1E	.	.	.
1FF	.	.	.	.	.
.	.	2D	.	.	.
=56	=56	=56	=56	=56	=56
2C	.	1E	-dit	1r	.
2AA	.	.	.	.	.
1D	-ti-	1F	gen-	1a	Rex
=57	=57	=57	=57	=57	=57
1C	-um,	1G	.	0cc	ef-
2r	.	1A	.	.	.
2F	Rex	.	.	.	.
=58	=58	=58	=58	=58	=58
2E	ef-	2B	.	0g	-fu-
2C	-fu-	2.c	.	.	.
1E	.	.	.	.	.
.	.	4B	.	.	.
.	.	2G	.	.	.
=59	=59	=59	=59	=59	=59
1D	-dit,	1d	-ti-	0a	-dit
2r	.	1A	-um,	.	.
2F	Rex	.	.	.	.
=60	=60	=60	=60	=60	=60
2E	ef-	0r	.	0g	.
2C	-fu-	.	.	.	.
1E	.	.	.	.	.
=61	=61	=61	=61	=61	=61
1D	-dit	1r	.	0f	gen-
2r	.	2r	.	.	.
2D	gen-	2F	gen-	.	.
=62	=62	=62	=62	=62	=62
2C	.	2G	.	0e	.
2AA	.	2.A	.	.	.
1C	.	.	.	.	.
.	.	4G	.	.	.
.	.	2E	.	.	.
=63	=63	=63	=63	=63	=63
2BB	.	1G	-ti-	0d	-ti-
2GG	.	.	.	.	.
1BB	.	1D	-um,	.	.
=64	=64	=64	=64	=64	=64
1AA	.	1A	gen-	0e	.
2.C	.	2.E	.	.	.
4D	.	4F	.	.	.
=65	=65	=65	=65	=65	=65
1E	.	2G	.	0e	-um.
.	.	1A	.	.	.
1E	-ti-	.	.	.	.
.	.	2G	-ti-	.	.
=66	=66	=66	=66	=66	=66
1AA	-um.	2A	-um.	2r	.
.	.	2E	No-	2.e	No-
2r	.	1F	-bis	.	.
.	.	.	.	4d	.
[2A	No-	.	.	[2d	-bis
=67	=67	=67	=67	=67	=67
4A]	.	1E	na-	2d]	.
4G	.	.	.	.	.
1G	.	.	.	2c#i	na-
.	.	1D	-tus,	2d	-tus,
2F	.	.	.	[2a	no-
=68	=68	=68	=68	=68	=68
2G	-bis	2r	.	4a]	.
.	.	.	.	4g	.
2GG	na-	2G	no-	1g	-bis
1D	-tus,	1A	-bis	.	.
.	.	.	.	2f#i	da-
=69	=69	=69	=69	=69	=69
2r	.	1G	da-	1g	-tus,
2GG	no-	.	.	.	.
1D	-bis	1A	.	1r	.
=70	=70	=70	=70	=70	=70
1C	da-	1c	.	2r	.
.	.	.	.	2g	no-
2AA	.	1c	-tus	2a	-bis
[2C	.	.	.	[2g	da-
=71	=71	=71	=71	=71	=71
2C]	.	1c	ex	2g]	.
4BB	.	.	.	1cc	.
4AA	.	.	.	.	.
1GG	.	1d	.	.	.
.	.	.	.	2b	.
=72	=72	=72	=72	=72	=72
1C	-tus	1c	in-	2cc	-tus
.	.	.	.	2c	ex
2r	.	1c	-ta-	2.e	in-
[2C	ex	.	.	.	.
.	.	.	.	4f	.
=73	=73	=73	=73	=73	=73
2C]	.	1c	-cta	2g	.
2AA	in-	.	.	1a	-ta-
2D	-ta-	1B	.	.	.
2E	.	.	.	2g	.
=74	=74	=74	=74	=74	=74
1F	.	1A	Vir-	2a	.
.	.	.	.	2f	.
1E	.	2B	-gi-	1g	-cta
.	.	[2c	-ne,	.	.
=75	=75	=75	=75	=75	=75
1F	-cta	4c]	.	1.a	Vir-
.	.	4B	.	.	.
.	.	4A	.	.	.
.	.	4G	.	.	.
1FF	Vir-	1A	.	.	.
.	.	.	.	4g	.
.	.	.	.	4f	.
=76	=76	=76	=76	=76	=76
2C	.	1G	.	2e	.
2BB	.	.	.	1d	.
1E	.	1G	et	.	.
.	.	.	.	2c#i	-gi-
=77	=77	=77	=77	=77	=77
0D	.	[0A	in	1d	-ne,
.	.	.	.	[1a	Vir-
=78	=78	=78	=78	=78	=78
1F	.	1A]	.	1a]	.
1F	-gi-	[1c	mun-	1a	-gi-
=79	=79	=79	=79	=79	=79
0C	-ne,	0c]	.	[0g	-ne,
=80	=80	=80	=80	=80	=80
1G	et	0B	-do	1g]	.
2.G	in	.	.	2r	.
.	.	.	.	[2g	ex
4F	.	.	.	.	.
=81	=81	=81	=81	=81	=81
1E	mun-	0r	.	2g]	.
.	.	.	.	2g	in-
[1D	-do,	.	.	1a	-ta-
=82	=82	=82	=82	=82	=82
1D]	.	1r	.	2d	-cta
.	.	.	.	1dd	Vir-
2r	.	[1A	con-	.	.
2AA	et	.	.	2cc	.
=83	=83	=83	=83	=83	=83
2.D	in	1A]	.	2dd	.
.	.	.	.	2a	-gi-
4C	.	.	.	.	.
1BB	mun-	1G	-ver-	1b	-ne,
=84	=84	=84	=84	=84	=84
0AA	-do	1A	-sa-	2r	.
.	.	.	.	2.cc	et
.	.	1A	-tus,	.	.
.	.	.	.	4b	.
.	.	.	.	4a	.
.	.	.	.	4g	.
=85	=85	=85	=85	=85	=85
1D	con-	1r	.	2.f	.
.	.	.	.	8eL	.
.	.	.	.	8dJ	.
1F	-ver-	1A	spar-	2.c	.
.	.	.	.	4d	.
=86	=86	=86	=86	=86	=86
0C	-sa-	1c	-so	2.e	.
.	.	.	.	4f	.
.	.	1G	ver-	2.g	.
.	.	.	.	4a	.
=87	=87	=87	=87	=87	=87
1GG	-tus,	1G	-bi	1b	.
[1D	con-	1F	se-	[1a	in
=88	=88	=88	=88	=88	=88
1D]	.	1A	-mi-	1a]	.
1AA	-ver-	1A	-ne,	[1cc	mun-
=89	=89	=89	=89	=89	=89
2.C	-sa-	0G	.	1cc]	.
4BB	.	.	.	.	.
4GG	.	.	.	1b	-do
4AA	.	.	.	.	.
4BB	.	.	.	.	.
4C	.	.	.	.	.
=90	=90	=90	=90	=90	=90
1D	.	1F	.	2r	.
.	.	.	.	2a	con-
1AA	.	1E	.	1cc	.
=91	=91	=91	=91	=91	=91
2.BB	.	1D	.	1b	-ver-
4C	.	.	.	.	.
2D	.	2r	.	2a	-sa-
2GG	.	[2G	su-	[2b	.
=92	=92	=92	=92	=92	=92
1GG	-tus,	2G]	.	4b]	.
.	.	.	.	4cc	.
.	.	2G	-i	2dd	.
2r	.	1G	mo-	2g	-tus,
[2G	spar-	.	.	[2b	spar-
=93	=93	=93	=93	=93	=93
2G]	.	1E	-ras	2b]	.
2G	-so	.	.	2b	-so
2E	ver-	1G	in-	2.b	ver-
2E	-bi	.	.	.	.
.	.	.	.	4cc	.
=94	=94	=94	=94	=94	=94
2.D	se-	1A	-co-	1dd	.
4C	.	.	.	.	.
4AA	.	1A	-la-	1cc	.
4BB	.	.	.	.	.
4C	.	.	.	.	.
4D	.	.	.	.	.
=95	=95	=95	=95	=95	=95
1.E	.	[0G	-tus	1b	-bi
.	.	.	.	1r	.
2C	.	.	.	.	.
=96	=96	=96	=96	=96	=96
2BB	.	0G]	.	2r	.
2.GG	.	.	.	2.dd	se-
4AA	.	.	.	4cc	.
4BB	.	.	.	2b	.
4C	.	.	.	.	.
=97	=97	=97	=97	=97	=97
2D	.	1r	.	2a	.
2GG	.	.	.	2g	.
1D	.	1A	mi-	2f	.
.	.	.	.	2f	-mi-
=98	=98	=98	=98	=98	=98
2.AA	.	1c	-ro	1e	-ne,
4BB	.	.	.	.	.
1C	.	1G	clau-	2r	.
.	.	.	.	[2c	se-
=99	=99	=99	=99	=99	=99
4AA	.	1A	-sit	4c]	.
4BB	.	.	.	4d	.
4C	.	.	.	4e	.
4D	.	.	.	4f	.
2E	.	1G	.	2g	.
2C	.	.	.	2e	.
=100	=100	=100	=100	=100	=100
2D	.	1F	or-	2f	.
2D	-mi-	.	.	1d	.
1AA	-ne,	1E	.	.	.
.	.	.	.	2c#i	-mi-
=101	=101	=101	=101	=101	=101
2r	.	1D	-di-	1d	-ne,
2BB	se-	.	.	.	.
2.C	.	1E	.	2r	.
.	.	.	.	2g	su-
4BB	.	.	.	.	.
=102	=102	=102	=102	=102	=102
2AA	.	1E	-ne,	2a	-i
2AA	-mi-	.	.	2cc	mo-
1GG	-ne,	2r	.	1b	.
.	.	2G	or-	.	.
=103	=103	=103	=103	=103	=103
2r	.	2F	.	2a	.
1G	su-	2G	-di-	1b	.
.	.	1D	-ne,	.	.
2F	-i	.	.	[2a	.
=104	=104	=104	=104	=104	=104
1G	mo-	2r	.	4a]	.
.	.	.	.	4g	.
.	.	2G	or-	1g	.
1D	-ras	1A	-di-	.	.
.	.	.	.	2f#i	.
=105	=105	=105	=105	=105	=105
2r	.	1G	-ne,	1g	-ras
1E	in-	.	.	.	.
.	.	2r	.	1r	.
2D	-co-	[2d	su-	.	.
=106	=106	=106	=106	=106	=106
1E	-la-	2d]	.	2r	.
.	.	2c	-i	2g	in-
1BB	.	2d	mo-	1b	-co-
.	.	2D	-ras	.	.
=107	=107	=107	=107	=107	=107
2AA	-tus,	2.A	in-	1cc	-la-
1A	in-	.	.	.	.
.	.	4B	.	.	.
.	.	2c	.	2a	.
2G	-co-	2B	-co-	2b	.
=108	=108	=108	=108	=108	=108
1A	-la-	2c	-la-	2e	.
.	.	2A	.	1a	.
1E	-tus,	2B	.	.	.
.	.	2e	.	2g	.
=109	=109	=109	=109	=109	=109
2r	.	4f	.	2a	.
.	.	4e	.	.	.
1G	in-	4d	.	2b	.
.	.	4c	.	.	.
.	.	2B	.	2g	.
2F	-co-	2A	.	2a	.
=110	=110	=110	=110	=110	=110
2G	-la-	2B	.	2.d	.
1D	.	2.A	.	.	.
.	.	.	.	4e	.
.	.	.	.	2f	.
.	.	4B	.	.	.
2C	.	[2c	.	[2e	.
=111	=111	=111	=111	=111	=111
1D	.	2c]	.	2e]	.
.	.	2B	.	2d	.
2AA	-tus,	1c	.	2.a	.
[2A	in-	.	.	.	.
.	.	.	.	4b	.
=112	=112	=112	=112	=112	=112
2A]	.	2A	.	2cc	.
2G	-co-	2B	.	1b	.
1A	-la-	1c	.	.	.
.	.	.	.	2a	.
=113	=113	=113	=113	=113	=113
1E	-tus	0B	-tus	1b	-tus
2r	.	.	.	2r	.
2E	mi-	.	.	[2b	mi-
=114	=114	=114	=114	=114	=114
1G	-ro	2r	.	2b]	.
.	.	2B	mi-	2b	-ro
2D	clau-	2d	-ro	1a	clau-
2F	.	2A	clau-	.	.
=115	=115	=115	=115	=115	=115
1E	-sit,	2c	-sit,	1g	.
.	.	2B	.	.	.
2r	.	2r	.	2e	.
2E	mi-	[2B	mi-	[2g	.
=116	=116	=116	=116	=116	=116
1G	-ro	2B]	.	2g]	.
.	.	2B	-ro	2d	-sit
2D	clau-	[1A	clau-	2.f	or-
2D	-sit	.	.	.	.
.	.	.	.	4g	.
=117	=117	=117	=117	=117	=117
2F	or-	2A]	.	1a	.
2F	-di-	2A	-sit	.	.
1E	-ne,	2e	or-	2g	.
.	.	2e	-di-	2e	.
=118	=118	=118	=118	=118	=118
2r	.	4E	.	1g	-di-
.	.	4F	.	.	.
2E	[mi-	4G	.	.	.
.	.	4A	.	.	.
1G	-ro	4B	.	1d	-ne,
.	.	4c	.	.	.
.	.	[2d	.	.	.
=119	=119	=119	=119	=119	=119
2D	clau-	4d]	.	2.f	or-
.	.	4A	.	.	.
2D	-sit	2d	.	.	.
.	.	.	.	4g	.
2F	or-	2c	.	1a	.
2F	-di-	2d	.	.	.
=120	=120	=120	=120	=120	=120
[0E	-ne.]	1G	-ne.	1.g	-di-
.	.	2r	.	.	.
.	.	[2G	In	2e	.
=121	=121	=121	=121	=121	=121
0E]	.	2G]	.	1e	-ne.
.	.	2G	su-	.	.
.	.	1G	-pre-	2r	.
.	.	.	.	2e	In
=122	=122	=122	=122	=122	=122
0r	.	2D	-mae	1f	su-
.	.	1d	no-	.	.
.	.	.	.	1e	-pre-
.	.	2c	.	.	.
=123	=123	=123	=123	=123	=123
0r	.	1d	.	2d	-mae
.	.	.	.	1g	no-
.	.	1e	.	.	.
.	.	.	.	2g	-cte
=124	=124	=124	=124	=124	=124
2r	.	2E	-cte	1g	coe-
2E	In	2e	coe-	.	.
1F	su-	2c	.	2a	.
.	.	[2d	.	2f	.
=125	=125	=125	=125	=125	=125
1E	-pre-	2d]	.	1g	.
.	.	2c#i	.	.	.
1D	-mae	1d	.	1f	-nae,
=126	=126	=126	=126	=126	=126
2r	.	0B	-nae,	1r	.
1G	no-	.	.	.	.
.	.	.	.	2r	.
2G	-cte	.	.	[2g	no-
=127	=127	=127	=127	=127	=127
2.G	coe-	0r	.	2g]	.
.	.	.	.	2g	-cte
4F	.	.	.	.	.
4E	.	.	.	1g	coe-
4D	.	.	.	.	.
4C	.	.	.	.	.
4BB	.	.	.	.	.
=128	=128	=128	=128	=128	=128
1AA	.	0r	.	2a	.
.	.	.	.	1cc	.
1GG	.	.	.	.	.
.	.	.	.	2b	.
=129	=129	=129	=129	=129	=129
1AA	-nae	0E	in	1cc	-nae
1C	re-	.	.	1cc	re-
=130	=130	=130	=130	=130	=130
2.BB-X	-cum-	0F	su-	1dd	.
4AA	.	.	.	.	.
2.FF	.	.	.	1cc	-cum-
4GG	.	.	.	.	.
=131	=131	=131	=131	=131	=131
4AA	.	0E	-pre-	1cc	-bens
4GG	.	.	.	.	.
4AA	.	.	.	.	.
4BB	.	.	.	.	.
1C	.	.	.	1cc	cum
=132	=132	=132	=132	=132	=132
1GG	-bens	0D	-mae	1b	.
2r	.	.	.	[1a	fra-
[2D	cum	.	.	.	.
=133	=133	=133	=133	=133	=133
4D]	.	1r	.	1a]	.
4E	.	.	.	.	.
2F	.	.	.	.	.
1E	.	[1G	no-	[1b	-tri-
=134	=134	=134	=134	=134	=134
1E	fra-	1G]	.	1b]	.
[1C	.	1G	-cte	[1cc	-bus
=135	=135	=135	=135	=135	=135
2C]	.	0G	coe-	1cc]	.
4BB	.	.	.	.	.
4AA	.	.	.	.	.
1GG	.	.	.	1b	.
=136	=136	=136	=136	=136	=136
1D	-tri-	0A	.	0a	.
1F	.	.	.	.	.
=137	=137	=137	=137	=137	=137
0C	-bus	0c	.	0g	.
=138	=138	=138	=138	=138	=138
2r	.	0c	-nae	1r	.
1C	ob-	.	.	.	.
.	.	.	.	1g	ob-
2C	-ser-	.	.	.	.
=139	=139	=139	=139	=139	=139
2.F	-va-	0r	.	2a	-ser-
.	.	.	.	1cc	-va-
4G	.	.	.	.	.
2A	.	.	.	.	.
[2G	.	.	.	[2b	-ta
=140	=140	=140	=140	=140	=140
2G]	.	0r	.	2b]	.
2C	-ta	.	.	1a	le-
2D	le-	.	.	.	.
2E	-ge	.	.	2g	-ge
=141	=141	=141	=141	=141	=141
2.F	ple-	0c	re-	0a	ple-
4G	.	.	.	.	.
2A	.	.	.	.	.
2AA	-ne,	.	.	.	.
=142	=142	=142	=142	=142	=142
2r	.	0d	.	1a	-ne
2D	re-	.	.	.	.
4D	-cum-	.	.	1a	ci-
4E	.	.	.	.	.
4F	.	.	.	.	.
4G	.	.	.	.	.
=143	=143	=143	=143	=143	=143
2A	.	1c	-cum-	1cc	-bis
2AA	-bens	.	.	.	.
1C	cum	1c	-bens	2g	in
.	.	.	.	2g	le-
=144	=144	=144	=144	=144	=144
1FF	fra-	0c	cum	2f	-ga-
.	.	.	.	2a	-li-
1AA	-tri-	.	.	1a	-bus,
=145	=145	=145	=145	=145	=145
1GG	-bus,	0B	.	2d	.
.	.	.	.	2g	ci-
2r	.	.	.	2g	-bum
2GG	cum	.	.	2g	tur-
=146	=146	=146	=146	=146	=146
2.AA	fra-	0A	fra-	1e	-bae
4BB	.	.	.	.	.
2C	.	.	.	1r	.
2D	.	.	.	.	.
=147	=147	=147	=147	=147	=147
1BB	.	1B	-tri-	1g	du-
2AA	.	[1c	-bus	1a	-o-
[2A	.	.	.	.	.
=148	=148	=148	=148	=148	=148
2A]	.	1c]	.	1a	-de-
2F	.	.	.	.	.
1G	-tri-	1B	.	1g	-nae
=149	=149	=149	=149	=149	=149
1F	-bus	0A	.	1a	se
2r	.	.	.	[1cc	dat
2F	ob-	.	.	.	.
=150	=150	=150	=150	=150	=150
1C	-ser-	0G	.	1cc]	.
1E	-va-	.	.	1g	su-
=151	=151	=151	=151	=151	=151
2AA	-ta,	0r	.	0a	-is
1A	ob-	.	.	.	.
2D	-ser-	.	.	.	.
=152	=152	=152	=152	=152	=152
1G	-va-	1r	.	0g	.
1E	-ta	1G	ob-	.	.
=153	=153	=153	=153	=153	=153
2D	.	1A	-ser-	0f	ma-
1F	le-	.	.	.	.
.	.	[1c	-va-	.	.
4E	.	.	.	.	.
4D	.	.	.	.	.
=154	=154	=154	=154	=154	=154
2.C	.	1c]	.	0e	.
4D	.	.	.	.	.
4E	.	[1B	-ta	.	.
4D	.	.	.	.	.
4E	.	.	.	.	.
4F	.	.	.	.	.
=155	=155	=155	=155	=155	=155
2G	-ge	1B]	.	0d	-ni-
2GG	ple-	.	.	.	.
1D	-ne,	[1A	le-	.	.
=156	=156	=156	=156	=156	=156
2r	.	1A]	.	0e	.
2AA	ple-	.	.	.	.
1E	-ne,	1G	-ge	.	.
=157	=157	=157	=157	=157	=157
2r	.	0A	ple-	0e	-bus,
2.AA	se	.	.	.	.
4BB	.	.	.	.	.
2C	.	.	.	.	.
=158	=158	=158	=158	=158	=158
2D	.	0A	-ne	2r	.
2.AA	dat	.	.	2a	[se
.	.	.	.	1cc	dat
4BB	.	.	.	.	.
4C	.	.	.	.	.
4D	.	.	.	.	.
=159	=159	=159	=159	=159	=159
2E	.	0r	.	2g	su-
2.AA	su-	.	.	1a	-is
4BB	.	.	.	.	.
2C	.	.	.	2g	.
=160	=160	=160	=160	=160	=160
2D	.	1r	.	2f	ma-
2C	-is	.	.	1e	.
2D	ma-	1A	ci-	.	.
2D	-ni-	.	.	2d	-ni-
=161	=161	=161	=161	=161	=161
1AA	-bus,	0c	-bis	1e	-bus,]
1AA	ci-	.	.	1r	.
=162	=162	=162	=162	=162	=162
0E	-bis	0G	in	1e	ci-
.	.	.	.	1b	-bis
=163	=163	=163	=163	=163	=163
2r	.	0G	le-	2r	.
1E	in	.	.	1b	in
2E	le-	.	.	2b	le-
=164	=164	=164	=164	=164	=164
2.A	-ga-	1F	-ga-	2.cc	-ga-
4G	.	.	.	4b	.
4F	.	1A	-li-	4a	.
4E	.	.	.	4g	.
4D	.	.	.	4f	.
4C	.	.	.	4e	.
=165	=165	=165	=165	=165	=165
2.D	.	0A	-bus,	2.f	.
8CL	.	.	.	8eL	.
8BBJ	.	.	.	8dJ	.
2AA	.	.	.	2c	.
2AA	-li-	.	.	2c	-li-
=166	=166	=166	=166	=166	=166
0GG	-bus,	0D	.	2d	-bus,
.	.	.	.	1dd	ci-
.	.	.	.	2dd	-bum
=167	=167	=167	=167	=167	=167
2r	.	0r	.	1dd	tur-
1G	ci-	.	.	.	.
.	.	.	.	1b	-bae,
2G	-bum	.	.	.	.
=168	=168	=168	=168	=168	=168
1G	tur-	1r	.	2r	.
.	.	.	.	1b	[ci-
1E	-bae,	[1G	ci-	.	.
.	.	.	.	2b	-bum
=169	=169	=169	=169	=169	=169
1r	.	1G]	.	1b	tur-
2r	.	1G	-bum	1g	-bae,]
[2E	[ci-	.	.	.	.
=170	=170	=170	=170	=170	=170
2E]	.	0G	tur-	2r	.
2E	-bum	.	.	1g	[ci-
1E	tur-	.	.	.	.
.	.	.	.	2g	-bum
=171	=171	=171	=171	=171	=171
1C	-bae,]	0E	-bae	1g	tur-
2r	.	.	.	2e	-bae,]
[2E	[ci-	.	.	[2g	ci-
=172	=172	=172	=172	=172	=172
2E]	.	1r	.	2g]	.
2E	-bum	.	.	2g	-bum
1E	tur-	1G	du-	1g	tur-
=173	=173	=173	=173	=173	=173
0AA	-bae]	0A	-o-	1e	-bae
.	.	.	.	2r	.
.	.	.	.	2e	du-
=174	=174	=174	=174	=174	=174
1r	.	0A	-de-	2f	-o-
.	.	.	.	2e	-de-
1D	du-	.	.	1f	.
=175	=175	=175	=175	=175	=175
1E	-o-	0G	-nae	1e	-nae,
1E	-de-	.	.	2r	.
.	.	.	.	[2g	[du-
=176	=176	=176	=176	=176	=176
1D	-nae	0r	.	2g]	.
.	.	.	.	2f	-o-
1E	se	.	.	1g	-de-
=177	=177	=177	=177	=177	=177
1G	dat	0r	.	2d	-nae]
.	.	.	.	2d	se
1D	su-	.	.	1f	dat
=178	=178	=178	=178	=178	=178
1E	-is	1r	.	2e	su-
.	.	.	.	2g	-is
1D	.	1A	se	2f	ma-
.	.	.	.	2f	-ni-
=179	=179	=179	=179	=179	=179
2.C	ma-	0c	dat	0e	-bus,
4D	.	.	.	.	.
4E	.	.	.	.	.
4C	.	.	.	.	.
[2E	.	.	.	.	.
=180	=180	=180	=180	=180	=180
2E]	.	0G	su-	1r	.
4D	.	.	.	.	.
4C	.	.	.	.	.
2BB	.	.	.	1b	se
2BB	-ni-	.	.	.	.
=181	=181	=181	=181	=181	=181
0AA	-bus,	0A	-is	0cc	dat
=182	=182	=182	=182	=182	=182
0r	.	0G	.	1b	su-
.	.	.	.	1g	-is
=183	=183	=183	=183	=183	=183
0r	.	0F	ma-	1a	ma-
.	.	.	.	2a	-ni-
.	.	.	.	[2a	-bus.
=184	=184	=184	=184	=184	=184
1AA	se	0E	.	2a]	.
.	.	.	.	4g	.
.	.	.	.	4f	.
1C	dat	.	.	2.e	.
.	.	.	.	4f	.
=185	=185	=185	=185	=185	=185
2GG	su-	0D	-ni-	2g	.
2AA	-is	.	.	4f	.
.	.	.	.	4e	.
2BB	ma-	.	.	1d	.
2BB	-ni-	.	.	.	.
=186	=186	=186	=186	=186	=186
0AA	-bus.	0E	.	2a	Ver-
.	.	.	.	1cc	.
.	.	.	.	4b	.
.	.	.	.	4a	.
=187	=187	=187	=187	=187	=187
1r	.	0E	-bus.	2g	.
.	.	.	.	1a	.
1E	Ver-	.	.	.	.
.	.	.	.	2g	.
=188	=188	=188	=188	=188	=188
0F	-bum	0r	.	2a	.
.	.	.	.	1f	.
.	.	.	.	4e	.
.	.	.	.	4d	.
=189	=189	=189	=189	=189	=189
0E	ca-	1r	.	2c	.
.	.	.	.	1d	.
.	.	1G	Ver-	.	.
.	.	.	.	2c#i	.
=190	=190	=190	=190	=190	=190
0D	-ro,	1A	-bum	4d	.
.	.	.	.	4e	.
.	.	.	.	4f	.
.	.	.	.	4g	.
.	.	2F	ca-	2.a	.
.	.	[2A	.	.	.
.	.	.	.	4b	.
=191	=191	=191	=191	=191	=191
0r	.	2A]	.	2cc	.
.	.	2G	.	1dd	.
.	.	1A	.	.	.
.	.	.	.	2cc	.
=192	=192	=192	=192	=192	=192
0BB	[ver-	1D	-ro,	2.dd	-bum
.	.	.	.	4cc	.
.	.	2r	.	4b	.
.	.	.	.	4a	.
.	.	[2G	ca-	2b	.
=193	=193	=193	=193	=193	=193
0C	-bum	4G]	.	2.g	ca-
.	.	4F	.	.	.
.	.	4E	.	.	.
.	.	4D	.	4f	.
.	.	2.E	.	4e	.
.	.	.	.	4d	.
.	.	.	.	2e	.
.	.	4F	.	.	.
=194	=194	=194	=194	=194	=194
0BB	ca-	2G	.	1d	-ro,
.	.	1A	.	.	.
.	.	.	.	2r	.
.	.	2G#i	.	2d	ca-
=195	=195	=195	=195	=195	=195
0AA	-ro,]	0A	.	2f	.
.	.	.	.	1e	.
.	.	.	.	[2a	.
=196	=196	=196	=196	=196	=196
1r	.	1E	-ro,	2a]	.
.	.	.	.	2g	.
[1D	pa-	2r	.	1a	-ro,
.	.	[2F	pa-	.	.
=197	=197	=197	=197	=197	=197
1D]	.	4F]	.	2r	.
.	.	4D	.	.	.
.	.	4F	.	2.f	pa-
.	.	4G	.	.	.
1D	-nem	2A	.	.	.
.	.	.	.	4d	.
.	.	2D	-nem	4f	.
.	.	.	.	4g	.
=198	=198	=198	=198	=198	=198
0D	ve-	2F	ve-	2a	.
.	.	2G	.	1g	.
.	.	1A	.	.	.
.	.	.	.	2f#i	.
=199	=199	=199	=199	=199	=199
0E	.	1G	-rum,	0g	-nem
.	.	2r	.	.	.
.	.	[2B	pa-	.	.
=200	=200	=200	=200	=200	=200
0G	.	4B]	.	2r	.
.	.	4G	.	.	.
.	.	4B	.	2.b	ve-
.	.	4c	.	.	.
.	.	2d	.	.	.
.	.	.	.	4g	.
.	.	2G	-nem	4b	.
.	.	.	.	4cc	.
=201	=201	=201	=201	=201	=201
0G	-rum	2B	ve-	2dd	.
.	.	2c	.	1cc	.
.	.	1d	.	.	.
.	.	.	.	2b	.
=202	=202	=202	=202	=202	=202
0r	.	1c	-rum	2.cc	.
.	.	.	.	4b	.
.	.	2r	.	2a	.
.	.	2C	ver-	2g	.
=203	=203	=203	=203	=203	=203
0r	.	2D	.	2f	.
.	.	2E	.	2e	.
.	.	2F	.	1d	.
.	.	2G	.	.	.
=204	=204	=204	=204	=204	=204
0F	ver-	2.A	.	2c	-rum
.	.	.	.	1cc	ver-
.	.	4B	.	.	.
.	.	2c	.	.	.
.	.	[2d	.	2a	.
=205	=205	=205	=205	=205	=205
0G	.	4d]	.	2b	.
.	.	4c	.	.	.
.	.	4B	.	1dd	.
.	.	4A	.	.	.
.	.	1B	.	.	.
.	.	.	.	4cc	.
.	.	.	.	4b	.
=206	=206	=206	=206	=206	=206
1F	-bo	1c	-bo	1a	-bo
1F	car-	2A	car-	2r	.
.	.	[2c	.	[2a	car-
=207	=207	=207	=207	=207	=207
0F	-nem	4c]	.	2a]	.
.	.	4B	.	.	.
.	.	4A	.	2a	-nem
.	.	4G	.	.	.
.	.	1A	.	2a	ef-
.	.	.	.	2a	-fi-
=208	=208	=208	=208	=208	=208
0E	.	1.B	-nem	1g	-cit,
.	.	.	.	2r	.
.	.	2c	ef-	2g	ef-
=209	=209	=209	=209	=209	=209
0D	ef-	2d	.	2f	-fi-
.	.	2A	.	4d	.
.	.	.	.	4e	.
.	.	2.d	.	4f	.
.	.	.	.	4g	.
.	.	.	.	[2a	.
.	.	4c	.	.	.
=210	=210	=210	=210	=210	=210
1E	-fi-	1B	-fi-	2a]	.
.	.	.	.	2g#i	.
[1F	-cit:	1A	-cit:	2a	-cit:
.	.	.	.	4f	.
.	.	.	.	4g	.
=211	=211	=211	=211	=211	=211
1F]	.	1r	.	4a	.
.	.	.	.	4b	.
.	.	.	.	1cc	.
1E	.	1G	fit-	.	.
.	.	.	.	2c	fit-
=212	=212	=212	=212	=212	=212
0D	.	0A	-que	1d	-que
.	.	.	.	1f	san-
=213	=213	=213	=213	=213	=213
0C	.	2.c	san-	1e	-guis,
.	.	4B	.	.	.
.	.	2A	.	2r	.
.	.	2G	.	2g	[fit-
=214	=214	=214	=214	=214	=214
0r	.	2F	-guis	2a	-que
.	.	1A	Chri-	1cc	san-
.	.	2G	-sti	2b	-guis]
=215	=215	=215	=215	=215	=215
1r	.	4F	me-	1a	Chri-
.	.	4G	.	.	.
.	.	4A	.	.	.
.	.	4B	.	.	.
1C	fit-	1c	.	2g	-sti
.	.	.	.	[2a	me-
=216	=216	=216	=216	=216	=216
1D	-que	1A	-rum,	2a]	.
.	.	.	.	2a	-rum,
[1F	san-	2r	.	1a	et
.	.	[2A	fit-	.	.
=217	=217	=217	=217	=217	=217
1F]	.	2A]	.	1cc	si
*	*	*	*	*	*
.	.	2A	-que	.	.
[1E	-guis	2c	[san-	[1g	sen-
.	.	2B	-guis	.	.
=218	=218	=218	=218	=218	=218
1E]	.	1G	Chri-	2g]	.
.	.	.	.	2g	-sus
[1D	Chri-	1A	-sti	2f	de-
.	.	.	.	[2a	.
=219	=219	=219	=219	=219	=219
1D]	.	1F	me-	2a]	.
.	.	.	.	4g	.
.	.	.	.	4f	.
1C	-sti	1G	.	2e	.
.	.	.	.	2e	-fi-
=220	=220	=220	=220	=220	=220
0D	me-	1F	-rum,]	1d	-cit,
.	.	2r	.	2r	.
.	.	[2f	me-	[2dd	me-
=221	=221	=221	=221	=221	=221
0D	-rum,	4f]	.	4dd]	.
.	.	4e	.	4cc	.
.	.	4d	.	4b	.
.	.	4c	.	4a	.
.	.	2.d	.	2b	.
.	.	.	.	2a	.
.	.	4c	.	.	.
=222	=222	=222	=222	=222	=222
0r	.	2.B	.	2d	.
.	.	.	.	1g	.
.	.	8AL	.	.	.
.	.	8GJ	.	.	.
.	.	1A	.	.	.
.	.	.	.	2f#i	.
=223	=223	=223	=223	=223	=223
1r	.	1G	-rum,	0g	-rum,
1E	et	1r	.	.	.
=224	=224	=224	=224	=224	=224
0G	si	1B	et	1r	.
.	.	[1d	si	1b	et
=225	=225	=225	=225	=225	=225
0D	sen-	1d]	.	0dd	si
.	.	1A	sen-	.	.
=226	=226	=226	=226	=226	=226
0D	-sus	2A	-sus	1a	sen-
.	.	1d	de-	.	.
.	.	.	.	1a	-sus
.	.	2d	-fi-	.	.
=227	=227	=227	=227	=227	=227
1C	de-	1.e	-cit,	1.cc	de-
1E	-fi-	.	.	.	.
.	.	4d	.	4b	.
.	.	4c	.	4a	.
=228	=228	=228	=228	=228	=228
0E	-cit,	2B	.	2g	.
.	.	2c	.	1a	.
.	.	1B	.	.	.
.	.	.	.	2g#i	-fi-
=229	=229	=229	=229	=229	=229
0AA	.	1A	.	1a	-cit,
.	.	2r	.	2r	.
.	.	[2A	de-	[2cc	de-
=230	=230	=230	=230	=230	=230
0r	.	2A]	.	2cc]	.
.	.	4G	.	4b	.
.	.	4F	.	4a	.
.	.	2E	.	2g	.
.	.	2E	-fi-	2g	-fi-
=231	=231	=231	=231	=231	=231
1r	.	0D	-cit,	1f	-cit,
[1D	ad	.	.	2r	.
.	.	.	.	[2f	ad
=232	=232	=232	=232	=232	=232
1D]	.	2r	.	2f]	.
.	.	1F	ad	2d	fir-
1D	fir-	.	.	2.f	-man-
.	.	2D	fir-	.	.
.	.	.	.	4g	.
=233	=233	=233	=233	=233	=233
0D	-man-	2.F	-man-	1a	.
.	.	4G	.	.	.
.	.	1A	.	2d	-dum,
.	.	.	.	2a	ad
=234	=234	=234	=234	=234	=234
0BB	-dum	1D	-dum,	2b	fir-
.	.	.	.	2.dd	-man-
.	.	2r	.	.	.
.	.	.	.	4cc	.
.	.	2D	ad	2b	.
=235	=235	=235	=235	=235	=235
1r	.	2F	fir-	2a	.
.	.	2G	.	1g	.
1D	cor	1A	-man-	.	.
.	.	.	.	2f#i	.
=236	=236	=236	=236	=236	=236
0E	sin-	0G	-dum	1g	-dum
.	.	.	.	2r	.
.	.	.	.	[2g	cor
=237	=237	=237	=237	=237	=237
0E	-ce-	1r	.	4g]	.
.	.	.	.	4f	.
.	.	.	.	4e	.
.	.	.	.	4d	.
.	.	1G	cor	1e	.
=238	=238	=238	=238	=238	=238
0D	-rum	1A	sin-	2f	sin-
.	.	.	.	4d	-ce-
.	.	.	.	4e	.
.	.	[1A	-ce-	4f	.
.	.	.	.	4g	.
.	.	.	.	4a	.
.	.	.	.	4b	.
=239	=239	=239	=239	=239	=239
0r	.	1A]	.	1cc	.
.	.	[1G	-rum,	1b	-rum,
=240	=240	=240	=240	=240	=240
0r	.	1G]	.	2r	.
.	.	.	.	2g	cor
.	.	1d	[cor	2a	sin-
.	.	.	.	2a	-ce-
=241	=241	=241	=241	=241	=241
1r	.	1e	sin-	1g	-rum
1E	so-	1e	-ce-	[1b	so-
=242	=242	=242	=242	=242	=242
0G	-la	1d	-rum]	1b]	.
.	.	2r	.	1b	-la
.	.	2B	so-	.	.
=243	=243	=243	=243	=243	=243
0D	fi-	2d	-la	0a	fi-
.	.	2A	fi-	.	.
.	.	1d	-des	.	.
=244	=244	=244	=244	=244	=244
0E	-des	1.B	suf-	0g	-des
.	.	2c	.	.	.
=245	=245	=245	=245	=245	=245
0D	.	1d	.	1f	suf-
.	.	1A	.	1f	-fi-
=246	=246	=246	=246	=246	=246
0C	suf-	2.c	.	0e	-cit,
.	.	4B	.	.	.
.	.	2A	.	.	.
.	.	[2G	.	.	.
=247	=247	=247	=247	=247	=247
0BB	.	2G]	.	1r	.
.	.	4F	.	.	.
.	.	4E	.	.	.
.	.	1D	.	2r	.
.	.	.	.	2g	suf-
=248	=248	=248	=248	=248	=248
0AA	-fi-	1A	.	2f	.
.	.	.	.	4e	.
.	.	.	.	4d	.
.	.	1A	-fi-	2e	.
.	.	.	.	2e	-fi-
=249	=249	=249	=249	=249	=249
0BB	.	0D	-cit,	0d	-cit,
=250	=250	=250	=250	=250	=250
0BB	-cit,	2r	.	2r	.
.	.	2.D	so-	1dd	so-
.	.	4E	.	.	.
.	.	4F	.	2b	-la
.	.	4G	.	.	.
=251	=251	=251	=251	=251	=251
0r	.	2.A	-la	1cc	fi-
.	.	4B	.	.	.
.	.	2c	.	2.a	-des
.	.	2d	.	.	.
.	.	.	.	4b	.
=252	=252	=252	=252	=252	=252
0r	.	1A	fi-	2cc	.
.	.	.	.	1a	suf-
.	.	1B-X	-des	.	.
.	.	.	.	2g	.
=253	=253	=253	=253	=253	=253
0r	.	1A	suf-	2a	.
.	.	.	.	2e	.
.	.	1D	-fi-	2f	.
.	.	.	.	2f	-fi-
=254	=254	=254	=254	=254	=254
2r	.	0A	-cit,	1e	-cit,
2.AA	suf-	.	.	.	.
.	.	.	.	2r	.
4BB	.	.	.	.	.
4C	.	.	.	2a	so-
4D	.	.	.	.	.
=255	=255	=255	=255	=255	=255
2.E	.	1r	.	1g	-la
4F	.	.	.	.	.
2G	.	2r	.	2.e	fi-
2A	.	2c	suf-	.	.
.	.	.	.	4f	.
=256	=256	=256	=256	=256	=256
1E	.	2B	.	2g	-des
.	.	2.c	.	1e	suf-
1F	.	.	.	.	.
.	.	4B	.	.	.
.	.	[2A	.	2d	-fi-
=257	=257	=257	=257	=257	=257
1E	.	2A]	.	[0el	-cit.
.	.	2G	.	.	.
2AA	.	2A	.	.	.
2AA	-fi-	2A	-fi-	.	.
=258	=258	=258	=258	=258	=258
00El	-cit.	00Gl	-cit.	00e]	.
==	==	==	==	==	==
*-	*-	*-	*-	*-	*-
!!!system-decoration: [*]
!!!RDF**kern: i = editorial accidental
!!!RDF**kern: l = terminal long
!!!!PTL: <i> New Senfl Edition: Motets for Four Voices (N-V) </i>
!!!PPR: Hollitzer Verlag
!!!PC#: Denkmäler der Tonkunst in Österreich 163.2
!!!PDT: 2022
!!!PED: Scott Lee Edwards, Stefan Gasch, and Sonja Tröster
!!!YEC: Copyright 2022 Denkmäler der Tonkunst in Österreich
!!!YEM: CC-BY-NC 4.0 (https://creativecommons.org/licenses/by-nc/4.0/legalcode)
!!!EED: Benjamin Ory
!!!EEV: 2024/4/9
!!!verovio: header encoded
!!!header-left: @{PTL}\n@{PED}, eds.\n@{PC#} (@{PDT})&nbsp;\n
!!!header-right:
!!!header-center:
